X:226
T:New Stove, The
R:Jig
C:F. Ferrel
M:6/8
L:1/8
Q:116
K:D
A|"D"f2A "A"e2A |"D"ded dAF | "D" DFA ded| "G" BGG G2A |!
"A"g2A f2A | "A" efe e2c |1 "A" ABA BAG |"D"  (F3 F2) :|2 "A" Aba gec |"D"d3 d||!
| FG| "D" A3  AFD |"D" A,DF  A2F | "D" DFA ded |"G" B3 B2 G|!
"A" g3 e3 |"A" cdc cBA| "A" ABA BAG|"D" F3 F2 A |!
"D" f3 "A" e3| "D" ded dAF| "D" DFA ded| "G" B6 |"G" Bgg g2 G|!
"D" Aff "Bm" f2a|"A" gec ABc|"D"  d3d2 ||
